X:1
T:Porter's Reel
C:Spencer and Rains 
C:[The Old Texas Fiddle Vol II]
L:1/8
M:C|
I:linebreak $
K:D
V:1 treble
V:1
 (3ABc |:"D" dBAF E F2 A | BFAF E/F/EDD | dBAF EFAA | BFAF FE D2 |$
 "A"e2 e2 efed | c3 c c2 cB | A2 AA fafe |1 "D" d3 d d2 AB :|2 "D" d3 d- d2 ed | $
|:"D" f3 e fafd | A3 A- A2 AA |"G" B3 B- B2 dd | g2 g2 gagf | $
"A"e2 e2 efed | c3 c- c2 cB | "D"A2 AA fafe |1 d3 (d d2) ed :|2 d3 (d d4) |]
